X:1
T:The Angel’s Song
T:The Angel’s Song
T:Daniel Brink Towner
T:Julia Harriet Johnston, 1899
T:Public Domain Courtesy of the Cyber Hymnal™
T:Public Domain Courtesy of the Cyber Hymnal™
T:Public Domain Courtesy of the Cyber Hymnal™
C:Daniel Brink Towner
Z:Public Domain
Z:Courtesy of the Cyber Hymnal™
%%score ( 1 2 ) ( 3 4 )
L:1/8
Q:1/4=98
M:6/8
K:Ab
V:1 treble 
V:2 treble 
V:3 bass 
V:4 bass 
V:1
 AEC AEC | [CA]2 [EB] [Ec]3 | [EB][EB][EB] [EB][B,G][B,E] | [EG]2 [=DF] E3 | AEC AEC | %5
w: 1.~Un- der the beau- ti- ful|Syr- ian sky,|Keep- ing their flocks while the|night went by,|Shep- herds were watch- ing; when|
w: 2.~“This,” said the an- gel, “shall|be the sign:|Laid in a man- ger, the|Babe di- vine,|Ye in the ci- ty may|
w: 3.~In- to the ci- ty where|Christ was born,|Hast- ened the shep- herds at|ear- ly morn:|There, in the man- ger, they|
 [CA]2 [EB] [Ec]3 | [_Ge][Ge][Ge] ([Fe][Fe])[Fd] | ([Ec][Ec])[DB] [CA]3 | FCF AFA | %9
w: on their sight,|Sud- den- ly burst * a|glori- * ous light;|Lo, from the hea- vens, an|
w: soon be- hold—|Ci- ty of David, * the|place * fore- told.”|Sud- den- ly then with the|
w: saw the Child,|Ho- ly, and harmless * and|un- * de- filed.|Come! Let us seek Him who|
 [=Ec]2 [EB] [FA]3 | BGE BGE | [Ee]2 [Ed] [Ec]3 | [Ec][Ec][Ec] [Fc][Fc][Fc] | [=Ec]2 [EB] [FA]3 | %14
w: an- gel fair|Came with a mes- sage to|meet them there;|While they were tremb- ling with|fear and dread,|
w: an- gel bright,|Mul- ti- tudes fair of the|hosts of light,|Hast- en their ju- bi- lant|notes to raise,|
w: came to earth;|Let us re- joice in His|low- ly birth;|Spread the good news of the|Sav- ior’s love;|
 [FA][EG][DF] [CE][CA][Ec] | [Ge]2 [EG] [EA]3 ||"^Refrain" [Ec]3 [CE]2 [CA] | [Ec]3 [CE]2 [CA] | %18
w: These were the words that the|an- gel said:|“Tid- ings, good|tid- ings of|
w: Join- ing their chor- us of|joy and praise.|||
w: Join the glad song of the|hosts a- bove.|||
 ([Ec]3 [Fd]2) [Ac] | [GB]6 | [Gd]3 (E2 B) | [Gd]3 E2 B | ([G-d]3 [Ge]2) [GB] | [Ac]6 | %24
w: joy * I|bring,|Christ is *|born, who is|Lord * and|king”;|
w: ||||||
w: ||||||
 [Ec]3 [CE]2 [CA] | [Ec]3 [_Ge]3 | [Fe]3 [Fd]2 [Fc] | [Fd]6 | [Ed]3 [Ec]2 [EB] | [Ec]3 [CA]2 [Ec] | %30
w: This was the|an- gel’s|won- der- ful|song;|Sing it a-|gain, and the|
w: ||||||
w: ||||||
 [Ge]3 (G2 D) | [CA]6 |] %32
w: notes pro- *|long.|
w: ||
w: ||
V:2
 AEC AEC | x6 | x6 | x3 E3 | AEC AEC | x6 | x6 | x6 | FCF AFA | x6 | BGE BGE | x6 | x6 | x6 | x6 | %15
 x6 || x6 | x6 | x6 | x6 | x3 D3 | x3 D3 | x6 | x6 | x6 | x6 | x6 | x6 | x6 | x6 | x3 E3 | x6 |] %32
V:3
 A,E,C, A,E,C, | A,2 [E,G,] [A,,A,]3 | [E,G,][E,G,][E,G,] [E,G,]E,[E,G,] | %3
w: ~ ~ ~ ~ ~ ~|~ ~ ~|~ ~ ~ ~ ~ ~|
 [B,,B,]2 [B,,A,] [E,G,]3 | A,E,C, A,E,C, | A,2 [E,G,] [A,,A,]3 | %6
w: ~ ~ ~|~ ~ ~ ~ ~ ~|~ ~ ~|
 [C,A,][C,A,][C,A,] ([D,A,][D,A,])[D,A,] | ([E,A,][E,A,])[E,G,] [A,,A,]3 | F,C,F, A,F,A, | %9
w: ~ ~ ~ ~ * ~|~ * ~ ~|~ ~ ~ ~ ~ ~|
 [C,G,]2 [C,C] [F,C]3 | B,G,E, B,G,E, | [G,B,]2 [G,B,] A,3 | A,A,A, [F,A,][F,A,][F,A,] | %13
w: ~ ~ ~|~ ~ ~ ~ ~ ~|~ ~ ~|~ ~ ~ ~ ~ ~|
 [C,G,]2 [C,G,] [D,F,]3 | [D,A,][D,A,][D,A,] [E,A,][E,A,][E,A,] | [E,B,]2 [E,D] [A,,C]3 || %16
w: ~ ~ ~|~ ~ ~ ~ ~ ~|~ ~ ~|
 [A,,A,][A,,A,][A,,A,] [A,,A,][A,,A,] z | [A,,A,][A,,A,][A,,A,] [A,,A,][A,,A,] z | %18
w: “Tid- ings, good tid- ings,|tid- ings, good tid- ings,|
 [A,,A,][A,,A,][A,,A,] [A,,A,]2 [A,,E,] | E,E,E, E,3 | B,2 B, [E,G,]2 z | %21
w: Tid- ings of joy, good|tid- ings I bring,|Christ is born,|
 B,2 B, [E,G,][E,G,][E,G,] | [E,B,]3 [E,B,]2 E, | E,2 E, [A,,E,]3 | %24
w: Christ is born who is|Lord, who is|Lord and king”;|
 [A,,A,][A,,A,][A,,A,] [A,,A,]2 z | [A,,A,][A,,A,][A,,A,] [A,,A,]2 z | %26
w: This was the song,|this was the song,|
 [D,A,][D,A,][D,A,] [D,A,]2 [D,A,] | [D,A,][F,A,]A, [D,A,]2 z | [E,G,][E,G,][E,G,] [A,,A,]2 z | %29
w: This ws the an- gel’s|won- der- ful song;|Sing it a- gain,|
 [A,,A,][A,,A,][A,,A,] [A,,E,][A,,E,][A,,A,] | [E,B,][E,B,][E,B,] [E,B,]2 [E,B,] | [A,,A,]6 |] %32
w: sing it a- gain, and the|won- der- ful notes pro-|long.|
V:4
 A,E,C, A,E,C, | A,2 x4 | x4 E, x | x6 | A,E,C, A,E,C, | A,2 x4 | x6 | x6 | F,C,F, A,F,A, | x6 | %10
 B,G,E, B,G,E, | x3 A,3 | A,A,A, x3 | x6 | x6 | x6 || x6 | x6 | x6 | E,E,E, E,3 | (E,G,)B, x3 | %21
 (E,G,)B, x3 | x5 E, | (A,,C,)E, x3 | x6 | x6 | x6 | x2 A, x3 | x6 | x6 | x6 | x6 |] %32

